svg/forwardArrow.svg

<svg width="284" height="284" viewBox="0 0 284 284" xmlns="http://www.w3.org/2000/svg">
    <path d="M206.613 147.132l-56.595 56.597a4.996 4.996 0 0 0 0 7.07 4.998 4.998 0 0 0 7.07 0l65.131-65.131c.244-.252.447-.498.623-.762.084-.128.142-.264.215-.397.084-.153.177-.301.244-.464.07-.167.109-.341.16-.513.041-.14.096-.275.125-.42a5.007 5.007 0 0 0 0-1.959c-.029-.146-.084-.281-.125-.421-.051-.172-.09-.346-.16-.513-.067-.163-.16-.311-.244-.464-.073-.133-.131-.269-.215-.397a4.998 4.998 0 0 0-.602-.736l-65.152-65.157A4.983 4.983 0 0 0 153.553 72c-1.28 0-2.561.488-3.535 1.465a4.996 4.996 0 0 0 0 7.07l56.595 56.597H66a5 5 0 1 0 0 10h140.613z" fill="#1A1918" fill-rule="evenodd"/>
</svg>

<svg width="284" height="284" viewBox="0 0 284 284" fill="none" xmlns="http://www.w3.org/2000/svg">
<path fill-rule="evenodd" clip-rule="evenodd" d="M206.613 147.132L150.018 203.729C148.064 205.681 148.064 208.847 150.018 210.799C151.969 212.752 155.137 212.752 157.088 210.799L222.219 145.668C222.463 145.416 222.666 145.17 222.842 144.906C222.926 144.778 222.984 144.642 223.057 144.509C223.141 144.356 223.234 144.208 223.301 144.045C223.371 143.878 223.41 143.704 223.461 143.532C223.502 143.392 223.557 143.257 223.586 143.112C223.715 142.465 223.715 141.799 223.586 141.153C223.557 141.007 223.502 140.872 223.461 140.732C223.41 140.56 223.371 140.386 223.301 140.219C223.234 140.056 223.141 139.908 223.057 139.755C222.984 139.622 222.926 139.486 222.842 139.358C222.666 139.094 222.463 138.848 222.24 138.622C222.232 138.614 157.088 73.465 157.088 73.465C156.111 72.488 154.832 72 153.553 72C152.273 72 150.992 72.488 150.018 73.465C148.064 75.417 148.064 78.583 150.018 80.535L206.613 137.132H66C63.238 137.132 61 139.371 61 142.132C61 144.893 63.238 147.132 66 147.132H206.613Z" fill="#1A1919"/>
</svg>
